app/dist/common/images/vor-biopharma.svg

<svg height="18" viewBox="0 0 18 18" width="18" xmlns="http://www.w3.org/2000/svg"><path d="m0 0h18v18h-18z" fill="#f0f3fa"/><path d="m9 10.68-3.53-5.68h-2.47l1.1 6.32 2.99 2.18 1.91-2.81z" fill="#7564a0"/><path d="m12.53 5-3.52 5.68 1.9 2.83h.01l3-2.2 1.08-6.31z" fill="#7c9ac0"/><path d="m7.09 13.51.71.56 1.2.93 1.2-.93.72-.56-1.92-2.83-1.9 2.83zm3.55-8.51-1.63 3-1.64-3z" fill="#575195"/></svg>

<!-- by TradingView --><svg width="18" height="18" viewBox="0 0 18 18" xmlns="http://www.w3.org/2000/svg"><path fill="#F0F3FA" d="M0 0h18v18H0z"/><path d="M9 10.68 5.47 5H3l1.1 6.32 2.99 2.18L9 10.69Z" fill="#7564A0"/><path d="m12.53 5-3.52 5.68 1.9 2.83h.01l3-2.2L15 5h-2.47Z" fill="#7C9AC0"/><path d="m7.09 13.51.71.56L9 15l1.2-.93.72-.56L9 10.68 7.1 13.51ZM10.64 5 9.01 8 7.37 5h3.27Z" fill="#575195"/></svg>
